X:1
T:The Bond of Perfectness
T:The Bond of Perfectness
T:Barney E. Warren, 1893
T:Daniel S. Warner, 1893
T:PUBLIC DOMAIN
T:PUBLIC DOMAIN
C:Barney E. Warren, 1893
Z:Daniel S. Warner, 1893
Z:PUBLIC DOMAIN
%%score ( 1 2 ) ( 3 4 )
L:1/8
Q:1/4=80
M:6/8
K:Eb
V:1 treble nm="SOPRANO ALTO"
V:2 treble 
V:3 bass nm="TENOR BASS"
V:4 bass 
V:1
 [GB] | [GB]2 [Ac] [GB]2 [EG] | E2 [EF] [EG]2 [GB] | [GB]2 [EG] E2 [EG] | [EG] [DF]2 [DF]2 | [AB] | %6
w: 1.~How|sweet this bond of|per- fect- ness, The|won- drous love of|Je- sus; *|A|
w: 2.~The|bond that cir- cles|heav- en’s pure— Oh,|won- drous, won- drous|sto- ry!— *|Has|
w: 3.~Oh,|praise the Lord for|love di- vine That|binds us all to-|geth- er; *|A|
w: 4.~“God|o- ver all and|in us all,” And|through each ho- ly|broth- er; *|No|
w: 5.~Oh,|mys- ter- y of|heav- en’s peace! Oh,|bond of heav- en’s|un- ion! *|Our|
 [GB]2 [Ge] [Ge]2 [Ac] | [GB]2 [EG] E2 [EF] | [EG]2 [GB] [FA]2 [DF] | [DF] E2 E2 || %10
w: pure fore- taste of|heav- en’s bliss, Oh,|fel- low- ship so|pre- cious! *|
w: dropped a- round the|ho- ly here, And|fills us all with|glo- ry. *|
w: thou- sand chords our|hearts en- twine, For-|ev- er and for-|ev- er. *|
w: pow’r of earth or|hell, with- al, Can|rend us from each|oth- er. *|
w: souls in fel- low-|ship em- brace, And|live in sweet com-|mun- ion. *|
"^Refrain" [Ge] | [Ad]2 [Ac] [AB]2 [AB] | [Ac]2 [GB] [Ge]2 E | [DF]2 [EG] [FA]2 [AB] | %14
w: Oh,|breth- ren, how this|per- fect love U-|nites us all in|
w: ||||
w: ||||
w: ||||
w: ||||
 [Ac]3 [GB]2 | [GB] | [GB]2 [Ac] [GB]2 [EG] | E2 [DF] [EG]2 [Ec] | [EB]2 [EB] [DA]2 [DF] | %19
w: Je- sus!|One|heart, and soul, and|mind we prove The|un- ion heav- en|
w: |||||
w: |||||
w: |||||
w: |||||
 [DF] E2 E2 |] %20
w: gave us. *|
w: |
w: |
w: |
w: |
V:2
 x | x6 | E2 z z3 | z3 E2 z | x5 | x | x6 | z3 E2 z | x6 | z E2 E2 || x | x6 | z3 z2 E | x6 | x5 | %15
 x | x6 | E2 z z3 | x6 | z E2 E2 |] %20
V:3
 [E,B,] | [E,E]2 [E,E] [E,E]2 [E,B,] | [E,G,]2 [E,A,] [E,B,]2 [E,E] | %3
 [E,E]2 [E,B,] [E,G,]2 [E,B,] | [B,,B,] [B,,B,]2 [B,,B,]2 | [B,,D] | [E,E]2 [E,B,] [E,B,]2 [E,E] | %7
 [E,E]2 [E,B,] [G,B,]2 [A,C] | B,2 B, [B,,B,]2 [B,,A,] | [B,,A,] [E,G,]2 [E,G,]2 || [E,B,] | %11
 [F,B,]2 [F,B,] [B,,D]2 [B,,D] | [E,E]2 [E,E] [E,B,]2 [C,=A,] | [B,,B,]2 [B,,B,] [B,,B,]2 [B,,D] | %14
 [E,E]3 [E,E]2 | [E,E] | [E,E]2 [E,E] [E,E]2 [E,B,] | [G,B,]2 [F,B,] [E,B,]2 [B,,A,] | %18
 [B,,G,]2 [B,,G,] [B,,F,]2 [B,,A,] | [B,,A,] [E,G,]2 [E,G,]2 |] %20
V:4
 x | x6 | x6 | x6 | x5 | x | x6 | x6 | B,2 B, z3 | x5 || x | x6 | x6 | x6 | x5 | x | x6 | x6 | x6 | %19
 x5 |] %20

